static/img/kroki/c44bffc934463b07095df1c2df2668a6.svg

<?xml version="1.0" encoding="us-ascii" standalone="no"?><svg xmlns="http://www.w3.org/2000/svg" xmlns:xlink="http://www.w3.org/1999/xlink" contentStyleType="text/css" height="152px" preserveAspectRatio="none" style="width:253px;height:152px;" version="1.1" viewBox="0 0 253 152" width="253px" zoomAndPan="magnify"><defs/><g><!--class kubernetes_namespace--><g id="elem_kubernetes_namespace"><rect codeLine="22" fill="#3D176E" height="39.7891" id="kubernetes_namespace" rx="2.5" ry="2.5" style="stroke:#000D19;stroke-width:0.5;" width="239" x="7" y="7"/><ellipse cx="22" cy="26.8945" fill="#ADD1B2" rx="11" ry="11" style="stroke:#181818;stroke-width:1.0;"/><path d="M24.9688,32.5352 Q24.3906,32.832 23.75,32.9727 Q23.1094,33.1289 22.4063,33.1289 Q19.9063,33.1289 18.5781,31.4883 Q17.2656,29.832 17.2656,26.707 Q17.2656,23.582 18.5781,21.9258 Q19.9063,20.2695 22.4063,20.2695 Q23.1094,20.2695 23.75,20.4258 Q24.4063,20.582 24.9688,20.8789 L24.9688,23.5977 Q24.3438,23.0195 23.75,22.7539 Q23.1563,22.4727 22.5313,22.4727 Q21.1875,22.4727 20.5,23.5508 Q19.8125,24.6133 19.8125,26.707 Q19.8125,28.8008 20.5,29.8789 Q21.1875,30.9414 22.5313,30.9414 Q23.1563,30.9414 23.75,30.6758 Q24.3438,30.3945 24.9688,29.8164 L24.9688,32.5352 Z " fill="#000000"/><text fill="#D9B8FF" font-family="Helvetica" font-size="17" lengthAdjust="spacing" textLength="197" x="41" y="32.7798">kubernetes_namespace</text></g><!--class kubernetes_role--><g id="elem_kubernetes_role"><rect codeLine="24" fill="#3D176E" height="39.7891" id="kubernetes_role" rx="2.5" ry="2.5" style="stroke:#000D19;stroke-width:0.5;" width="177" x="38" y="106.79"/><ellipse cx="53" cy="126.6845" fill="#ADD1B2" rx="11" ry="11" style="stroke:#181818;stroke-width:1.0;"/><path d="M55.9688,132.3252 Q55.3906,132.622 54.75,132.7627 Q54.1094,132.9189 53.4063,132.9189 Q50.9063,132.9189 49.5781,131.2783 Q48.2656,129.622 48.2656,126.497 Q48.2656,123.372 49.5781,121.7158 Q50.9063,120.0595 53.4063,120.0595 Q54.1094,120.0595 54.75,120.2158 Q55.4063,120.372 55.9688,120.6689 L55.9688,123.3877 Q55.3438,122.8095 54.75,122.5439 Q54.1563,122.2627 53.5313,122.2627 Q52.1875,122.2627 51.5,123.3408 Q50.8125,124.4033 50.8125,126.497 Q50.8125,128.5908 51.5,129.6689 Q52.1875,130.7314 53.5313,130.7314 Q54.1563,130.7314 54.75,130.4658 Q55.3438,130.1845 55.9688,129.6064 L55.9688,132.3252 Z " fill="#000000"/><text fill="#D9B8FF" font-family="Helvetica" font-size="17" lengthAdjust="spacing" textLength="135" x="72" y="132.5698">kubernetes_role</text></g><!--link kubernetes_namespace to kubernetes_role--><g id="link_kubernetes_namespace_kubernetes_role"><path codeLine="26" d="M126.5,47.22 C126.5,62.49 126.5,83.92 126.5,100.53 " fill="none" id="kubernetes_namespace-to-kubernetes_role" style="stroke:#1A83AF;stroke-width:2.0;"/><polygon fill="#1A83AF" points="126.5,105.41,130.5,96.41,126.5,100.41,122.5,96.41,126.5,105.41" style="stroke:#1A83AF;stroke-width:2.0;"/></g><!--SRC=[XP9FIyGm4CNl-oa2FI-q5crx4Rg5HI-BkDv496qcsz0sAPFKPHM_kwrLYSd-kSxxpSnxmzI20O6kDmVIGLS2weLkXEmfqexaY6fVg5OX2JYdF4vSSQsakGXiQ0Va3jetCAAYBl5KYwgHe3MvigGLhPeTga6oURn1AlKeWJGMLRHKwzmO5ELWm3B3iZBbt2NTeK7CekG6F4mX0_n1mZ1aKUOY5rUTpVr7RCKxaCW-saOPy6nwAxwfioudmZBf1VtLJtfye8m9kIFNLkrnzeGIy5zzMrEczXFDQQljDTe0WZA77Wel5MGfuybH-FuKN4sN8yqmFge40_fLZlx7lwY0V2m-VHbLEoj7MvRFGPIdSRv-MTwwNLy0]--></g></svg>

<svg xmlns="http://www.w3.org/2000/svg" width="253" height="152" preserveAspectRatio="none" style="width:253px;height:152px"><rect width="239" height="39.789" x="7" y="7" fill="#3D176E" rx="2.5" ry="2.5" style="stroke:#000d19;stroke-width:.5"/><circle cx="22" cy="26.895" r="11" fill="#ADD1B2" style="stroke:#181818;stroke-width:1"/><path d="M24.969 32.535q-.578.297-1.219.438-.64.156-1.344.156-2.5 0-3.828-1.64-1.312-1.657-1.312-4.782t1.312-4.781q1.328-1.656 3.828-1.656.703 0 1.344.156.656.156 1.219.453v2.719q-.625-.578-1.219-.844-.594-.281-1.219-.281-1.343 0-2.031 1.078-.688 1.062-.688 3.156 0 2.094.688 3.172.688 1.062 2.031 1.062.625 0 1.219-.265.594-.281 1.219-.86v2.72Z"/><text x="41" y="32.78" fill="#D9B8FF" font-family="Helvetica" font-size="17" textLength="197">kubernetes_namespace</text><rect width="177" height="39.789" x="38" y="106.79" fill="#3D176E" rx="2.5" ry="2.5" style="stroke:#000d19;stroke-width:.5"/><circle cx="53" cy="126.684" r="11" fill="#ADD1B2" style="stroke:#181818;stroke-width:1"/><path d="M55.969 132.325q-.578.297-1.219.438-.64.156-1.344.156-2.5 0-3.828-1.64-1.312-1.657-1.312-4.782t1.312-4.781q1.328-1.656 3.828-1.656.703 0 1.344.156.656.156 1.219.453v2.719q-.625-.579-1.219-.844-.594-.281-1.219-.281-1.343 0-2.031 1.078-.688 1.062-.688 3.156 0 2.094.688 3.172.688 1.062 2.031 1.062.625 0 1.219-.265.594-.281 1.219-.86v2.72Z"/><text x="72" y="132.57" fill="#D9B8FF" font-family="Helvetica" font-size="17" textLength="135">kubernetes_role</text><path fill="none" d="M126.5 47.22v53.31" style="stroke:#1a83af;stroke-width:2"/><path fill="#1A83AF" d="m126.5 105.41 4-9-4 4-4-4 4 9z" style="stroke:#1a83af;stroke-width:2"/></svg>
